X: 18
T: Silver Spear, The
Z: Sean Perry
S: https://thesession.org/tunes/182#setting53669
R: reel
M: 4/4
L: 1/8
K: Dmaj
|:FA (3AAA BAFA|dfed BcdA|FA (3AAA BAFA|dfed B2 A2|
FA (3AAA BAFA|dfed Bdef|g2 ge f2 fe|1 dfed B2 A2:|2 dfed Bcde||
|:f2 af bfaf|gfed Bcde|f2 af bfaf|gfed B2 A2|
f2 af bfaf|gfed Bdef|g2 ge f2 fe|1 dfed B2 A2:|2 dfed B2 AG||

